X:1
T:Title
%%score { 1 | 2 }
L:1/8
M:4/4
K:Bb
V:1 treble nm="Grand Piano"
V:2 bass 
V:1
 z4 z2 z[Q:1/4=100] [DF] | [DB]3 [B,D] [DF]3 [B,D] | [DF][EG][DF][B,D] [DF]3 [DF] | G3 F G3 [EA] | %4
 [DB][FB][EA][DB] [Fc]3 [EF] | [DB]3 [B,D] [DF]3 [B,D] | [DF][EG][DF]D [DF]3 [DF] | %7
 [FA][=EG][FA][GB] [FA]2 [EG]2 |[M:3/4] F6 |[M:1/4] F2 |[M:4/4] [CE]2 [=B,D]2 [CE]2 [DF]2 | %11
 D3 E F2 [DF]2 | E2 D2 E2 F2 | D3 [CE] [DF]2 [EF]2 | [FB]4 [DF]4 | [FB]2 c2 d2 c2 | B4 A4 | %17
[M:3/4] [DB]6 |] %18
V:2
 z4 z2 z [B,,F,] | [B,,F,]3 [B,,F,] [B,,F,]3 [B,,F,] | %2
 [B,,B,][B,,B,][B,,B,][B,,F,] [B,,F,]3 [B,,B,] | [E,B,E]3 [D,B,] [E,B,E]3 [C,F,] | %4
 [B,,F,][D,B,][C,F,][B,,F,] [F,A,]3 [F,A,] | [B,,B,]3 [B,,F,] [B,,F,]3 [B,,F,] | %6
 [B,,B,][B,,B,][B,,B,][B,,B,] [B,,B,]3 [B,,F,] | [C,F,][C,B,][C,A,][C,G,] [C,C]2 [C,B,]2 | %8
[M:3/4] [F,A,]6 |[M:1/4] [F,D]2 |[M:4/4] [F,,F,]2 [F,,F,]2 [F,,F,]2 [F,,F,]2 | %11
 [B,,F,B,]3 [C,F,B,] [D,F,B,]2 [B,,F,]2 | [F,A,C]2 [F,A,=B,]2 [F,A,C]2 [F,A,D]2 | %13
 [B,,B,]3 [B,,F,] [B,,F,]2 [C,A,]2 | [D,B,]4 [B,,B,]4 | %15
 [D,B,]2[K:treble] [F,A,F]2 [B,F]2[K:bass] [E,G,E]2 | [F,D]4 [F,E]4 |[M:3/4] [B,,F,]6 |] %18

